!!!OTL: E BISSELE LIEB
!!!ARE: Europa, Mitteleuropa, Deutschland, Bayern, Schwaben
!!!SCT: E1015
!!!YEM: Copyright 1995, estate of Helmut Schaffrath.
**kern
*ICvox
*Ivox
*M3/8
*k[f#]
*G:
{8g
=1
8b
8.b
16cc
=2
8ee
8dd
16r}
{16dd
=3
8dd
8.cc
16cc
=4
8cc
8b}
{16b
16cc
=5
8b
8a
8a
=6
8a
8.g}
{16g
=7
16a
16cc
8f#
8f#
=8
4g}
==
!!!AGN: Tanz - Lied; Liebe, Eifersucht
!!!ONB: ESAC (Essen Associative Code) Database: ERK3
!!!AMT: simple triple
!!!AIN: vox
!!!EED: Helmut Schaffrath
!!!EEV: 1.0
*-
